icons/glyphs/glyph-qbittorrent.svg

<?xml version="1.0" encoding="UTF-8" standalone="no"?><svg height="16" viewBox="0 0 4.2333332 4.2333332" width="16" xmlns="http://www.w3.org/2000/svg"><sodipodi:namedview/><metadata><rdf:RDF><cc:Work><dc:format>image/svg+xml</dc:format><dc:type/><dc:title/></cc:Work></rdf:RDF></metadata><path d="m2.1166665-.00000001c-1.16911479 0-2.11666651.94766925-2.11666651 2.11666651 0 1.1691148.94766923 2.1166667 2.11666652 2.1166667 1.1691148 0 2.1166667-.9476695 2.1166667-2.1166667-.00000001-1.16911483-.94766951-2.11666651-2.11666671-2.11666651zm.1177202.82289289h.2348662v.71493482a.82323749.70563206 0 0 1  .4708807-.1269081.82323749.70563206 0 0 1  .8228929.7057469.82323749.70563206 0 0 1 -.8228929.7057471.82323749.70563206 0 0 1 -.4708807-.1280567v.2457767h-.2348662zm-.4703065.47030652h.2348662v2.1172409h-.2348662v-.7149349a.82323749.70563206 0 0 1 -.4708808.1269082.82323749.70563206 0 0 1 -.82289288-.7057471.82323749.70563206 0 0 1  .82289288-.7057469.82323749.70563206 0 0 1  .4708808.1280566zm-.4708808.3531606a.58802674.47042139 0 0 0 -.58802671.4703065.58802674.47042139 0 0 0  .58802671.4703066.58802674.47042139 0 0 0  .4708808-.1889266v-.5627599a.58802674.47042139 0 0 0 -.4708808-.1889266zm1.6297071 0a .58802674.47042139 0 0 0 -.4536536.1889266v.5627599a.58802674.47042139 0 0 0  .4708807.1889266.58802674.47042139 0 0 0  .5880267-.4703066.58802674.47042139 0 0 0 -.5880267-.4703065.58802674.47042139 0 0 0 -.017226 0z" fill="#d0d0d0" fill-rule="evenodd" stroke-width=".529167"/></svg>

<?xml version="1.0" encoding="UTF-8" standalone="no"?>
<!-- Created with Inkscape (http://www.inkscape.org/) -->

<svg
   xmlns:dc="http://purl.org/dc/elements/1.1/"
   xmlns:cc="http://creativecommons.org/ns#"
   xmlns:rdf="http://www.w3.org/1999/02/22-rdf-syntax-ns#"
   xmlns:svg="http://www.w3.org/2000/svg"
   xmlns="http://www.w3.org/2000/svg"
   xmlns:sodipodi="http://sodipodi.sourceforge.net/DTD/sodipodi-0.dtd"
   xmlns:inkscape="http://www.inkscape.org/namespaces/inkscape"
   width="16"
   height="16"
   viewBox="0 0 4.2333332 4.2333332"
   version="1.1"
   id="svg8"
   inkscape:version="0.92+devel (b8837397f6, 2017-07-27, custom)"
   sodipodi:docname="glyph-qbittorrent.svg">
  <defs
     id="defs2" />
  <sodipodi:namedview
     id="base"
     pagecolor="#002466"
     bordercolor="#ffffff"
     borderopacity="0.38039216"
     inkscape:pageopacity="1"
     inkscape:pageshadow="2"
     inkscape:zoom="18.208"
     inkscape:cx="8"
     inkscape:cy="8"
     inkscape:document-units="px"
     inkscape:current-layer="svg8"
     inkscape:document-rotation="0"
     showgrid="false"
     inkscape:showpageshadow="false"
     borderlayer="true"
     inkscape:window-width="1920"
     inkscape:window-height="1051"
     inkscape:window-x="0"
     inkscape:window-y="0"
     inkscape:window-maximized="1"
     units="px" />
  <metadata
     id="metadata5">
    <rdf:RDF>
      <cc:Work
         rdf:about="">
        <dc:format>image/svg+xml</dc:format>
        <dc:type
           rdf:resource="http://purl.org/dc/dcmitype/StillImage" />
        <dc:title />
      </cc:Work>
    </rdf:RDF>
  </metadata>
  <path
     style="color:#000000;opacity:1;fill:#d0d0d0;fill-rule:evenodd;stroke-width:0.5291667"
     d="M 2.1166665,-1.5e-8 C 0.94755171,-1.5e-8 -1.5e-8,0.94766924 -1.5e-8,2.1166665 c 0,1.1691148 0.947669225,2.1166667 2.116666515,2.1166667 1.1691148,0 2.1166667,-0.9476695 2.1166667,-2.1166667 C 4.2333332,0.94755167 3.2856637,-1.5e-8 2.1166665,-1.5e-8 Z M 2.2343867,0.82289288 H 2.4692529 V 1.5378277 A 0.82323749,0.70563206 0 0 1 2.9401336,1.4109196 0.82323749,0.70563206 0 0 1 3.7630265,2.1166665 0.82323749,0.70563206 0 0 1 2.9401336,2.8224136 0.82323749,0.70563206 0 0 1 2.4692529,2.6943569 V 2.9401336 H 2.2343867 Z M 1.7640802,1.2931994 H 1.9989464 V 3.4104403 H 1.7640802 V 2.6955054 A 0.82323749,0.70563206 0 0 1 1.2931994,2.8224136 0.82323749,0.70563206 0 0 1 0.47030652,2.1166665 0.82323749,0.70563206 0 0 1 1.2931994,1.4109196 0.82323749,0.70563206 0 0 1 1.7640802,1.5389762 Z M 1.2931994,1.64636 A 0.58802674,0.47042139 0 0 0 0.70517269,2.1166665 0.58802674,0.47042139 0 0 0 1.2931994,2.5869731 0.58802674,0.47042139 0 0 0 1.7640802,2.3980465 V 1.8352866 A 0.58802674,0.47042139 0 0 0 1.2931994,1.64636 Z m 1.6297071,0 A 0.58802674,0.47042139 0 0 0 2.4692529,1.8352866 V 2.3980465 A 0.58802674,0.47042139 0 0 0 2.9401336,2.5869731 0.58802674,0.47042139 0 0 0 3.5281603,2.1166665 0.58802674,0.47042139 0 0 0 2.9401336,1.64636 a 0.58802674,0.47042139 0 0 0 -0.017226,0 z"
     id="path822"
     inkscape:connector-curvature="0"
     inkscape:label="#2" />
</svg>
